X: 114
T: A' Chuachag
R: reel
Z: 2005 John Chambers <jc:trillian.mit.edu>
B: Athole Collection
D: Jamie MacInnis & Paul MacNeil "Fosgail an Dorus"
N: From MS by Terry Traub, and two online transcriptions
M: C|
L: 1/8
K: D
g | "D"fedB  "Bm"dAAB | "Em"e2ed "A7"feeg | "D"fedB  "G"dAAB | "A7"defe "D"~d2 d :|
f | "D"aA~A2 "Bm"fedB | "Em"e2ed "A7"feef | "D"aA~A2 "G"fedA | "A7"defe "D"~d2 d |]
f | "D"aA~A2 "Bm"fedB | "Em"e2ed "A7"feeg | "D"fedB  "G"dAAB | "A7"defe "D"~d2 d |]

%%sep 1 1 500

